_inc/images/systems/logos/auto-puzzle.svg

<svg viewBox="0 0 200 40" xmlns="http://www.w3.org/2000/svg">
    <path d="M50.863 14.516h-3.82l-.801 4.625h-5.853L43.778 0h9.242c3.492 0 5.237 1.613 5.237 4.839 0 1.531-.216 2.912-.647 4.144-.431 1.238-.907 2.223-1.427 2.95-.527.722-1.25 1.335-2.167 1.838-.911.497-1.961.745-3.153.745Zm-.77-9.616h-1.355l-.832 4.716h1.355c.699 0 1.226-.074 1.582-.225.363-.156.596-.51.698-1.061.267-1.511.401-2.338.401-2.481 0-.387-.154-.643-.462-.765-.308-.123-.77-.184-1.387-.184ZM60.999 0h5.853l-2.557 14.363h2.095c.719 0 1.233-.095 1.541-.286.308-.197.523-.643.647-1.337L70.858 0h5.853l-1.91 10.749c-.308 1.736-.665 3.134-1.068 4.196-.398 1.062-.955 1.96-1.674 2.695-.719.735-1.609 1.245-2.67 1.531-1.055.286-2.393.429-4.015.429-2.485 0-4.228-.375-5.227-1.123-.993-.742-1.489-2.021-1.489-3.838 0-1.001.144-2.297.431-3.89L60.999 0Zm30.592 14.241-.863 4.9H74.955l.677-3.828 9.274-10.229-.062-.184h-6.131l.339-4.9h14.942l-.678 3.828-9.211 10.229.03.184h7.456Zm16.882 0-.862 4.9H91.837l.678-3.828 9.273-10.229-.062-.184h-6.13l.339-4.9h14.941l-.677 3.828-9.212 10.229.031.184h7.455Zm28.928-6.768-.801 4.44h-5.853l-.4 2.328h7.178l-.863 4.9h-13.031L127.019 0h12.878l-1.602 4.9h-6.316l-.431 2.573h5.853Z" style="white-space:pre;fill:#fff"/>
    <path d="M116.584 13.518h5.776l-.006 5.771h-5.776l.006-5.771Z" style="fill:#ccc" transform="rotate(5.105 119.47 16.403)"/>
    <path d="M110.866 6.652h5.777l-.006 5.771h-5.777l.006-5.771Z" style="fill:#ccc" transform="rotate(5.105 113.752 9.537)"/>
    <path d="M110.289 13.037h5.776l-.006 5.772h-5.776l.006-5.772Z" style="fill:#ccc" transform="rotate(5.105 113.174 15.923)"/>
    <path d="M111.444.265h5.777l-.006 5.771h-5.777l.006-5.771Z" style="fill:#ccc" transform="rotate(5.105 114.33 3.15)"/>
    <path d="m77.024 33.98.15-.81h-1.44l.81-4.59h6.87l-1.77 10.02c-2.44.9-4.89 1.35-7.35 1.35s-4.235-.49-5.325-1.47c-1.09-.98-1.635-2.49-1.635-4.53 0-.86.14-2.13.42-3.81.6-3.48 1.66-5.99 3.18-7.53 1.52-1.54 4.04-2.31 7.56-2.31.74 0 1.685.08 2.835.24 1.15.16 1.995.34 2.535.54l-1.65 4.59c-1.5-.28-2.875-.42-4.125-.42s-2.145.1-2.685.3c-.54.2-.86.6-.96 1.2l-1.47 8.49h1.89c.68 0 1.185-.075 1.515-.225.33-.15.545-.495.645-1.035Zm11.639 5.52h-6l7.89-18.75h8.82l1.32 18.75h-6.03l-.12-2.97h-4.71Zm5.13-12.99-2.1 5.25h2.4v-5.25Zm14.28 12.99h-5.94l4.38-18.75h7.44l.54 9.54h.21l3.9-9.54h7.44l-2.22 18.75h-5.97l1.26-9.09h-.21l-3.75 9.09h-4.35l-.63-9.09h-.15Zm31.559-7.08h-5.7l-.39 2.28h6.99l-.84 4.8h-12.69l3.3-18.75h12.54l-1.56 4.8h-6.15l-.42 2.52h5.7Zm2.729 6.75 1.68-4.95c1.68.46 3.22.69 4.62.69s2.53-.06 3.39-.18l.24-1.5-2.49-.24c-1.9-.18-3.245-.61-4.035-1.29s-1.185-1.64-1.185-2.88c0-.54.06-1.14.18-1.8.46-2.56 1.295-4.32 2.505-5.28s3.085-1.44 5.625-1.44 4.78.25 6.72.75l-1.56 4.8c-1.74-.3-3.14-.45-4.2-.45s-1.96.05-2.7.15l-.24 1.47 2.01.21c2.04.22 3.49.705 4.35 1.455.86.75 1.29 1.755 1.29 3.015 0 1.28-.28 2.6-.84 3.96-.28.7-.585 1.285-.915 1.755-.33.47-.75.87-1.26 1.2-.51.33-.975.58-1.395.75-.42.17-.95.295-1.59.375-.94.14-2.09.21-3.45.21-2.48 0-4.73-.26-6.75-.78Z" style="white-space:pre;fill:#fff"/>
</svg>

<?xml version="1.0" encoding="utf-8"?>
<svg viewBox="0 0 200 40" xmlns="http://www.w3.org/2000/svg">
  <path d="M 50.863 14.516 L 50.863 14.516 L 47.043 14.516 L 46.242 19.141 L 40.389 19.141 L 43.778 0 L 53.02 0 L 53.02 0 C 56.512 0 58.257 1.613 58.257 4.839 L 58.257 4.839 L 58.257 4.839 C 58.257 6.37 58.041 7.751 57.61 8.983 L 57.61 8.983 L 57.61 8.983 C 57.179 10.221 56.703 11.206 56.183 11.933 L 56.183 11.933 L 56.183 11.933 C 55.656 12.655 54.933 13.268 54.016 13.771 L 54.016 13.771 L 54.016 13.771 C 53.105 14.268 52.055 14.516 50.863 14.516 Z M 50.093 4.9 L 48.738 4.9 L 47.906 9.616 L 49.261 9.616 L 49.261 9.616 C 49.96 9.616 50.487 9.542 50.843 9.391 L 50.843 9.391 L 50.843 9.391 C 51.206 9.235 51.439 8.881 51.541 8.33 L 51.541 8.33 L 51.541 8.33 C 51.808 6.819 51.942 5.992 51.942 5.849 L 51.942 5.849 L 51.942 5.849 C 51.942 5.462 51.788 5.206 51.48 5.084 L 51.48 5.084 L 51.48 5.084 C 51.172 4.961 50.71 4.9 50.093 4.9 L 50.093 4.9 Z M 60.999 0 L 66.852 0 L 64.295 14.363 L 66.39 14.363 L 66.39 14.363 C 67.109 14.363 67.623 14.268 67.931 14.077 L 67.931 14.077 L 67.931 14.077 C 68.239 13.88 68.454 13.434 68.578 12.74 L 68.578 12.74 L 70.858 0 L 76.711 0 L 74.801 10.749 L 74.801 10.749 C 74.493 12.485 74.136 13.883 73.733 14.945 L 73.733 14.945 L 73.733 14.945 C 73.335 16.007 72.778 16.905 72.059 17.64 L 72.059 17.64 L 72.059 17.64 C 71.34 18.375 70.45 18.885 69.389 19.171 L 69.389 19.171 L 69.389 19.171 C 68.334 19.457 66.996 19.6 65.374 19.6 L 65.374 19.6 L 65.374 19.6 C 62.889 19.6 61.146 19.225 60.147 18.477 L 60.147 18.477 L 60.147 18.477 C 59.154 17.735 58.658 16.456 58.658 14.639 L 58.658 14.639 L 58.658 14.639 C 58.658 13.638 58.802 12.342 59.089 10.749 L 59.089 10.749 L 60.999 0 Z M 91.591 14.241 L 90.728 19.141 L 74.955 19.141 L 75.632 15.313 L 84.906 5.084 L 84.844 4.9 L 78.713 4.9 L 79.052 0 L 93.994 0 L 93.316 3.828 L 84.105 14.057 L 84.135 14.241 L 91.591 14.241 Z M 108.473 14.241 L 107.611 19.141 L 91.837 19.141 L 92.515 15.313 L 101.788 5.084 L 101.726 4.9 L 95.596 4.9 L 95.935 0 L 110.876 0 L 110.199 3.828 L 100.987 14.057 L 101.018 14.241 L 108.473 14.241 Z M 137.401 7.473 L 136.6 11.913 L 130.747 11.913 L 130.347 14.241 L 137.525 14.241 L 136.662 19.141 L 123.631 19.141 L 127.019 0 L 139.897 0 L 138.295 4.9 L 131.979 4.9 L 131.548 7.473 L 137.401 7.473 Z" style="white-space: pre; fill: rgb(255, 255, 255);"/>
  <path d="M 116.584 13.518 L 122.36 13.518 L 122.354 19.289 L 116.578 19.289 L 116.584 13.518 Z" style="fill: rgb(204, 204, 204);" transform="matrix(0.996034, 0.088971, -0.088971, 0.996034, 1.933225, -10.564228)"/>
  <path d="M 110.866 6.652 L 116.643 6.652 L 116.637 12.423 L 110.86 12.423 L 110.866 6.652 Z" style="fill: rgb(204, 204, 204);" transform="matrix(0.996034, 0.088971, -0.088971, 0.996034, 1.299675, -10.082765)"/>
  <path d="M 110.289 13.037 L 116.065 13.037 L 116.059 18.809 L 110.283 18.809 L 110.289 13.037 Z" style="fill: rgb(204, 204, 204);" transform="matrix(0.996034, 0.088971, -0.088971, 0.996034, 1.86551, -10.00606)"/>
  <path d="M 111.444 0.265 L 117.221 0.265 L 117.215 6.036 L 111.438 6.036 L 111.444 0.265 Z" style="fill: rgb(204, 204, 204);" transform="matrix(0.996034, 0.088971, -0.088971, 0.996034, 0.73371, -10.15952)"/>
  <path d="M 77.024 33.98 L 77.174 33.17 L 75.734 33.17 L 76.544 28.58 L 83.414 28.58 L 81.644 38.6 C 79.204 39.5 76.754 39.95 74.294 39.95 C 71.834 39.95 70.059 39.46 68.969 38.48 C 67.879 37.5 67.334 35.99 67.334 33.95 C 67.334 33.09 67.474 31.82 67.754 30.14 C 68.354 26.66 69.414 24.15 70.934 22.61 C 72.454 21.07 74.974 20.3 78.494 20.3 C 79.234 20.3 80.179 20.38 81.329 20.54 C 82.479 20.7 83.324 20.88 83.864 21.08 L 82.214 25.67 C 80.714 25.39 79.339 25.25 78.089 25.25 C 76.839 25.25 75.944 25.35 75.404 25.55 C 74.864 25.75 74.544 26.15 74.444 26.75 L 72.974 35.24 L 74.864 35.24 C 75.544 35.24 76.049 35.165 76.379 35.015 C 76.709 34.865 76.924 34.52 77.024 33.98 Z M 88.663 39.5 L 82.663 39.5 L 90.553 20.75 L 99.373 20.75 L 100.693 39.5 L 94.663 39.5 L 94.543 36.53 L 89.833 36.53 Z M 93.793 26.51 L 91.693 31.76 L 94.093 31.76 L 94.093 26.51 Z M 108.073 39.5 L 102.133 39.5 L 106.513 20.75 L 113.953 20.75 L 114.493 30.29 L 114.703 30.29 L 118.603 20.75 L 126.043 20.75 L 123.823 39.5 L 117.853 39.5 L 119.113 30.41 L 118.903 30.41 L 115.153 39.5 L 110.803 39.5 L 110.173 30.41 L 110.023 30.41 Z M 139.632 32.42 L 133.932 32.42 L 133.542 34.7 L 140.532 34.7 L 139.692 39.5 L 127.002 39.5 L 130.302 20.75 L 142.842 20.75 L 141.282 25.55 L 135.132 25.55 L 134.712 28.07 L 140.412 28.07 Z M 142.361 39.17 L 144.041 34.22 C 145.721 34.68 147.261 34.91 148.661 34.91 C 150.061 34.91 151.191 34.85 152.051 34.73 L 152.291 33.23 L 149.801 32.99 C 147.901 32.81 146.556 32.38 145.766 31.7 C 144.976 31.02 144.581 30.06 144.581 28.82 C 144.581 28.28 144.641 27.68 144.761 27.02 C 145.221 24.46 146.056 22.7 147.266 21.74 C 148.476 20.78 150.351 20.3 152.891 20.3 C 155.431 20.3 157.671 20.55 159.611 21.05 L 158.051 25.85 C 156.311 25.55 154.911 25.4 153.851 25.4 C 152.791 25.4 151.891 25.45 151.151 25.55 L 150.911 27.02 L 152.921 27.23 C 154.961 27.45 156.411 27.935 157.271 28.685 C 158.131 29.435 158.561 30.44 158.561 31.7 C 158.561 32.98 158.281 34.3 157.721 35.66 C 157.441 36.36 157.136 36.945 156.806 37.415 C 156.476 37.885 156.056 38.285 155.546 38.615 C 155.036 38.945 154.571 39.195 154.151 39.365 C 153.731 39.535 153.201 39.66 152.561 39.74 C 151.621 39.88 150.471 39.95 149.111 39.95 C 146.631 39.95 144.381 39.69 142.361 39.17 Z" style="white-space: pre; fill: rgb(255, 255, 255);"/>
</svg>
